svgs/regular/chart-line-down.svg

<svg xmlns="http://www.w3.org/2000/svg" viewBox="0 0 512 512"><!--! Font Awesome Pro 6.0.0-alpha3 by @fontawesome - https://fontawesome.com License - https://fontawesome.com/license (Commercial License) --><path d="M488 432H48V56C48 42.74 37.25 32 24 32S0 42.74 0 56V448c0 17.6 14.4 32 32 32h456c13.25 0 24-10.75 24-24C512 442.7 501.3 432 488 432zM191 256.1c9.375 9.375 24.56 9.375 33.94 0L304 177.9L398.1 272H344C330.8 272 320 282.8 320 296S330.8 320 344 320h112C469.3 320 480 309.3 480 296v-112C480 170.8 469.3 160 456 160S432 170.8 432 184v54.06l-111-111c-9.375-9.375-24.56-9.375-33.94 0L208 206.1L144.1 143c-9.375-9.375-24.56-9.375-33.94 0s-9.375 24.56 0 33.94L191 256.1z"/></svg>

<svg xmlns="http://www.w3.org/2000/svg" viewBox="0 0 512 512"><!--! Font Awesome Pro 6.4.2 by @fontawesome - https://fontawesome.com License - https://fontawesome.com/license (Commercial License) Copyright 2023 Fonticons, Inc. --><path d="M48 56c0-13.3-10.7-24-24-24S0 42.7 0 56V408c0 39.8 32.2 72 72 72H488c13.3 0 24-10.7 24-24s-10.7-24-24-24H72c-13.3 0-24-10.7-24-24V56zM320 296c0 13.3 10.7 24 24 24H456c13.3 0 24-10.7 24-24V184c0-13.3-10.7-24-24-24s-24 10.7-24 24v54.1L321 127c-9.4-9.4-24.6-9.4-33.9 0l-79 79-63-63c-9.4-9.4-24.6-9.4-33.9 0s-9.4 24.6 0 33.9l80 80c9.4 9.4 24.6 9.4 33.9 0l79-79L398.1 272H344c-13.3 0-24 10.7-24 24z"/></svg>
